Yaru++/emotes/16/face-sick.svg

<svg height="16" width="16" xmlns="http://www.w3.org/2000/svg"><g stroke-width="1.142857"><path d="m8 0a8 8 0 1 0 0 16 8 8 0 0 0 0-16zm-4.2137143 4.2148571a.30857143.30857143 0 0 1 .1428572.034286l1.2857142.7508569 1.3211429-.7497143c.1885714-.1051428.3885714-.024.464.1782857a.49371429.49371429 0 0 1 -.2137143.5714286l-.8228571.464.8228571.464a.42971429.42971429 0 0 1 .1782857.5371429c-.0788571.2011428-.2765714.2491428-.464.1417142l-1.2857143-.7142857-1.3222857.7142857c-.1885714.1051429-.3885714.0605715-.464-.1428571a.49371429.49371429 0 0 1 .2148572-.5714286l.7851428-.464-.7851428-.4285714c-.1885715-.1074286-.2925715-.3702857-.2148572-.5714286a.34628571.34628571 0 0 1 .3577143-.2148571zm5.8925713 0a.30857143.30857143 0 0 1 .142857.034286l1.285715.7508569 1.321142-.7497143c.188572-.1051428.388572-.024.464.1782857a.49371429.49371429 0 0 1 -.213714.5714286l-.821714.464.821714.464c.187429.1074286.291429.3348571.213714.5371429-.07771.2011428-.312.2491428-.499428.1417142l-1.285714-.7497142-1.321143.7497142c-.189715.1051429-.388572.0605715-.465143-.1428571a.49371429.49371429 0 0 1 .214857-.5714286l.821714-.464-.822857-.464c-.186286-.1074285-.291428-.3348571-.213714-.5371428a.34628571.34628571 0 0 1 .357714-.2137143zm-4.9645713 4.9622858a3.1428571 3.1428571 0 0 1 2.1428572.608c.4.2514281.472.3131431 1.1428571.3931431.1828571.064.6937143-.04571 1.142857-.3931431.32-.2331429.641143-.3371429.964572-.4274286 1.496-.4205714 2.941714.4982857 3.606857 1.4285717v.571428c-.584-.326857-1.211429-.683428-1.857143-.893714l.536 1.072c.374857.739429.150857 1.598857-.500572 1.928-.651428.330286-1.482285-.01029-1.857142-.749714l-.677715-1.321143c-.058285-.115429-.077714-.238857-.107428-.357714a.67885714.67885714 0 0 1 -.107429.03543c-.6182856.358855-1.782857.225141-2.2857141-.000002-1.048-.499428-1.0388572-.762286-1.7497143-.785143-.9748572.02172-2.1062857.456-2.8217143 1.070857v-.571428c.3017143-.774857 1.2788571-1.5040001 2.4285714-1.6068573z" fill="#76c22b"/><path d="m9.198661 11.053571a.67885714.67885714 0 0 0 .051339-.017857c.02971.118857.04886.241715.107143.357143l.678571 1.321429c.187429.369714.487661.6405.823661.776786.336.136285.707768.138357 1.033482-.02679.325714-.164572.543357-.461839.633929-.810268.09057-.348428.0535-.748589-.133929-1.118304l-.535714-1.071424c.21649.0705.411336.202349.622768.299107a2.5128717 2.4338597 0 0 0 -1.466518-.462054 2.5128717 2.4338597 0 0 0 -1.814732.752232z" fill="#f22c42"/><path d="m11.758928 15.058035a2.5128717 2.4338597 0 0 0 1.212054-.801339 8 8 0 0 1 -.453125.345983 8 8 0 0 1 -.683035.41741 8 8 0 0 1 -.07589.03795z" fill="#f22c42" opacity=".2"/><path d="m8 0a8 8 0 0 0 -7.9866071 8.3482143 8 8 0 0 1 7.9866071-7.77678573 8 8 0 0 1 7.986607 7.65178573 8 8 0 0 0 -7.986607-8.2232143zm1.435268 4.8526786a.34628571.34628571 0 0 0 -.113839.1450893c-.07771.2022857.028.4305178.214285.5379464l.316965.1785714.504464-.2857143-.821429-.4642857c-.044908-.0258982-.066394-.0737945-.100446-.1116071zm-2.5111608.0223214a.49371429.49371429 0 0 1 -.1383929.125l-.8214286.4642857.5044642.2857143.3169644-.1785714a.49371429.49371429 0 0 0 .2142857-.5714286c-.0184694-.0495315-.0444824-.0909513-.0758928-.125zm5.8906258 0a.49371429.49371429 0 0 1 -.136162.125l-.821428.4642857.504464.2857143.316964-.1785714a.49371429.49371429 0 0 0 .214286-.5714286c-.01862-.049927-.04638-.090812-.07812-.125zm-9.3035723.00446a.34628571.34628571 0 0 0 -.0825893.12054c-.077714.2011429.025714.464.2142857.5714286l.2834822.1540178.5022321-.296875-.7857143-.4285714c-.051704-.0294555-.0947108-.0721862-.1316964-.1205358zm7.5959823.9776787-1.321429.75c-.142285.0788613-.289035.0733435-.38616-.0200851a.49371429.49371429 0 0 0 -.07813.4486607c.07657.2034286.274571.248.464285.1428571l1.321429-.75 1.285714.75c.187429.1074286.422286.058286.5-.1428571.06016-.1565909-.0085-.3114079-.120536-.4308036-.10679.069687-.252183.075186-.379464.00223zm-5.8928573.0357184-1.3214286.7142858c-.1414285.0788571-.2892499.0733393-.3861606-.0200893a.49371429.49371429 0 0 0 -.078125.4486607c.075429.2034286.2757143.248.4642857.1428571l1.3214285-.7142857 1.2857143.7142857c.1874286.1074286.3854286.0582857.4642857-.1428571a.42971429.42971429 0 0 0 -.0758928-.453125c-.0976441.0963716-.2462228.1060413-.3883929.0245536zm-.1071428 4.3928569c-.9748572.02171-2.106.456572-2.8214286 1.071429v.571428c.7154286-.614857 1.8465714-1.049714 2.8214286-1.071428.7108571.02286.702.286286 1.75.785714.5028571.225143 1.6674285.358857 2.2857141 0a.67885714.67885714 0 0 0 .107143-.035714c.02971.118857.04886.241714.107143.357143l.678571 1.321428c.374857.739429 1.205715 1.080286 1.857143.75.518662-.26206.750399-.860352.640625-1.466517-.07614.383234-.289839.717849-.640625.895089-.651428.330285-1.482286-.01057-1.857143-.75l-.678571-1.321429c-.058286-.115428-.077429-.238286-.107143-.357143a.67885714.67885714 0 0 1 -.107143.03571c-.6182856.358857-1.782857.225142-2.2857141 0-1.048-.499424-1.0391429-.762853-1.75-.78571zm6.7500001.178572.361607.725447c.516413.210182 1.022713.474205 1.495536.738838v-.571428c-.584-.326857-1.211429-.682572-1.857143-.892857z" fill="#fefefe" opacity=".3"/><path d="m6.6763393 3.6339286c-.046446.00402-.093482.018357-.140625.044643l-1.3214286.75-1.2857143-.75a.30857143.30857143 0 0 0 -.1428571-.0357145.34628571.34628571 0 0 0 -.3571429.2142858c-.056406.145992-.015316.3229051.082589.4508928a.34628571.34628571 0 0 1 .2745539-.09375.30857143.30857143 0 0 1 .1428571.0357143l1.2857143.75 1.3214286-.75c.1423979-.079398.2915238-.051434.3883929.053571a.49371429.49371429 0 0 0 .0758928-.4464281c-.0565714-.1517143-.1843215-.2352679-.3236607-.2232143zm5.8928577 0c-.04645.00402-.09348.018357-.140626.044643l-1.321428.75-1.285714-.75a.30857143.30857143 0 0 0 -.142858-.035714.34628571.34628571 0 0 0 -.357142.2120536c-.05898.1535199.0066.307301.113839.4263394a.34628571.34628571 0 0 1 .243303-.0669649.30857143.30857143 0 0 1 .142858.0357143l1.285714.75 1.321428-.75c.14203-.079192.289275-.050758.386162.053571a.49371429.49371429 0 0 0 .07812-.4464285c-.056567-.1517139-.184317-.2352675-.323656-.2232139zm-2.716518 1.5089285-.316965.1785715a.49371429.49371429 0 0 0 -.214285.5714285c.01914.050857.04575.091625.07813.1227679a.49371429.49371429 0 0 1 .13616-.1227679l.821424-.4642857zm-5.9263397.0111607-.2834822.1674108a.49371429.49371429 0 0 0 -.2142857.5714285c.018857.050857.045821.091625.078125.1227679a.49371429.49371429 0 0 1 .1361607-.1227679l.7857143-.4642857zm2.5424106.024554-.5044642.2857143.8214286.4642857a.42971429.42971429 0 0 1 .1026786.082589c.031084-.030679.056851-.069733.075893-.1183036a.42971429.42971429 0 0 0 -.1785716-.5357143zm5.8928571 0-.504464.2857143.821428.4642857c.04234.024267.06106.07007.09375.1049108.05046-.032931.0956-.076077.120536-.1406251.077714-.2022861-.026857-.4282861-.214286-.5357146zm3.625 2.4732143a8 8 0 0 1 -7.986607 7.7767849 8 8 0 0 1 -7.9866071-7.6517853 8 8 0 0 0 7.9866071 8.2232143 8 8 0 0 0 7.986607-8.3482139zm-10.9575892.9419638a3.1428571 3.1428571 0 0 0 -.3147321.011161v.00223c-1.1497143.1028591-2.1268571.8322877-2.4285714 1.6071451v.571428c.3017143-.774857 1.2788571-1.5042854 2.4285714-1.6071426v-.00223a3.1428571 3.1428571 0 0 1 2.1428572.609375c.4.2514286.472.3128566 1.1428571.3928566.1828571.064.6937143-.04543 1.142857-.3928566.32-.2331429.640857-.3382857.964286-.4285714 1.496-.4205715 2.942.4982857 3.607143 1.428571v-.57143c-.665143-.930286-2.111143-1.8491431-3.607143-1.4285717-.323429.0902857-.644286.1954286-.964286.4285714-.4491427.3474286-.9599999.4568572-1.142857.3928572-.6708571-.08-.7428571-.1414286-1.1428571-.3928572a3.1428571 3.1428571 0 0 0 -1.8281251-.6205358zm6.8281252 1.8705361.535714 1.071428c.0764.150702.112525.306888.140625.462054.06525-.328451.03238-.692227-.140625-1.033482l-.174107-.345982c-.121427-.04942-.238681-.113986-.361607-.154018z" fill="#181818" opacity=".2"/></g></svg>

<?xml version="1.0" encoding="UTF-8" standalone="no"?>
<svg
   xmlns:dc="http://purl.org/dc/elements/1.1/"
   xmlns:cc="http://creativecommons.org/ns#"
   xmlns:rdf="http://www.w3.org/1999/02/22-rdf-syntax-ns#"
   xmlns:svg="http://www.w3.org/2000/svg"
   xmlns="http://www.w3.org/2000/svg"
   xmlns:sodipodi="http://sodipodi.sourceforge.net/DTD/sodipodi-0.dtd"
   xmlns:inkscape="http://www.inkscape.org/namespaces/inkscape"
   height="16"
   width="16"
   version="1.1"
   id="svg4"
   sodipodi:docname="face-sick.svg"
   inkscape:version="0.92.4 (5da689c313, 2019-01-14)">
  <metadata
     id="metadata10">
    <rdf:RDF>
      <cc:Work
         rdf:about="">
        <dc:format>image/svg+xml</dc:format>
        <dc:type
           rdf:resource="http://purl.org/dc/dcmitype/StillImage" />
      </cc:Work>
    </rdf:RDF>
  </metadata>
  <defs
     id="defs8" />
  <sodipodi:namedview
     pagecolor="#ffffff"
     bordercolor="#666666"
     borderopacity="1"
     objecttolerance="10"
     gridtolerance="10"
     guidetolerance="10"
     inkscape:pageopacity="0"
     inkscape:pageshadow="2"
     inkscape:window-width="1920"
     inkscape:window-height="1016"
     id="namedview6"
     showgrid="false"
     inkscape:zoom="52.4375"
     inkscape:cx="4.3766389"
     inkscape:cy="8"
     inkscape:window-x="0"
     inkscape:window-y="27"
     inkscape:window-maximized="1"
     inkscape:current-layer="svg4" />
  <path
     d="M 8,0 A 8,8 0 1 0 8,16 8,8 0 0 0 8,0 Z M 3.7862857,4.2148571 a 0.30857143,0.30857143 0 0 1 0.1428572,0.034286 L 5.2148571,5 6.536,4.2502857 C 6.7245714,4.1451429 6.9245714,4.2262857 7,4.4285714 A 0.49371429,0.49371429 0 0 1 6.7862857,5 L 5.9634286,5.464 6.7862857,5.928 A 0.42971429,0.42971429 0 0 1 6.9645714,6.4651429 C 6.8857143,6.6662857 6.688,6.7142857 6.5005714,6.6068571 L 5.2148571,5.8925714 3.8925714,6.6068571 C 3.704,6.712 3.504,6.6674286 3.4285714,6.464 A 0.49371429,0.49371429 0 0 1 3.6434286,5.8925714 l 0.7851428,-0.464 L 3.6434286,5 C 3.4548571,4.8925714 3.3508571,4.6297143 3.4285714,4.4285714 A 0.34628571,0.34628571 0 0 1 3.7862857,4.2137143 Z m 5.8925713,0 a 0.30857143,0.30857143 0 0 1 0.142857,0.034286 L 11.107429,5 12.428571,4.2502857 c 0.188572,-0.1051428 0.388572,-0.024 0.464,0.1782857 A 0.49371429,0.49371429 0 0 1 12.678857,5 l -0.821714,0.464 0.821714,0.464 c 0.187429,0.1074286 0.291429,0.3348571 0.213714,0.5371429 -0.07771,0.2011428 -0.312,0.2491428 -0.499428,0.1417142 L 11.107429,5.8571429 9.786286,6.6068571 C 9.596571,6.712 9.397714,6.6674286 9.321143,6.464 A 0.49371429,0.49371429 0 0 1 9.536,5.8925714 l 0.821714,-0.464 -0.822857,-0.464 C 9.348571,4.8571429 9.243429,4.6297143 9.321143,4.4274286 A 0.34628571,0.34628571 0 0 1 9.678857,4.2137143 Z M 4.7142857,9.1771429 a 3.1428571,3.1428571 0 0 1 2.1428572,0.608 c 0.4,0.2514281 0.472,0.3131431 1.1428571,0.3931431 0.1828571,0.064 0.6937143,-0.04571 1.142857,-0.3931431 C 9.462857,9.552 9.784,9.448 10.107429,9.3577143 11.603429,8.9371429 13.049143,9.856 13.714286,10.786286 v 0.571428 c -0.584,-0.326857 -1.211429,-0.683428 -1.857143,-0.893714 l 0.536,1.072 C 12.768,12.275429 12.544,13.134857 11.892571,13.464 11.241143,13.794286 10.410286,13.45371 10.035429,12.714286 L 9.357714,11.393143 C 9.299429,11.277714 9.28,11.154286 9.250286,11.035429 a 0.67885714,0.67885714 0 0 1 -0.107429,0.03543 C 8.5245714,11.429714 7.36,11.296 6.8571429,11.070857 c -1.048,-0.499428 -1.0388572,-0.762286 -1.7497143,-0.785143 -0.9748572,0.02172 -2.1062857,0.456 -2.8217143,1.070857 V 10.785143 C 2.5874286,10.010286 3.5645714,9.2811429 4.7142857,9.1782857 Z"
     id="path2"
     style="fill:#76c22b;fill-opacity:1;stroke-width:1.14285719"
     inkscape:connector-curvature="0" />
  <path
     style="opacity:1;fill:#f22c42;fill-opacity:1;stroke-width:1.14285719"
     d="M 9.198661,11.053571 A 0.67885714,0.67885714 0 0 0 9.25,11.035714 c 0.02971,0.118857 0.04886,0.241715 0.107143,0.357143 l 0.678571,1.321429 c 0.187429,0.369714 0.487661,0.6405 0.823661,0.776786 0.336,0.136285 0.707768,0.138357 1.033482,-0.02679 0.325714,-0.164572 0.543357,-0.461839 0.633929,-0.810268 0.09057,-0.348428 0.0535,-0.748589 -0.133929,-1.118304 l -0.535714,-1.071424 c 0.21649,0.0705 0.411336,0.202349 0.622768,0.299107 a 2.5128717,2.4338597 0 0 0 -1.466518,-0.462054 2.5128717,2.4338597 0 0 0 -1.814732,0.752232 z"
     id="path855"
     inkscape:connector-curvature="0" />
  <path
     style="opacity:0.2;fill:#f22c42;fill-opacity:1;stroke-width:1.14285719"
     d="m 11.758928,15.058035 a 2.5128717,2.4338597 0 0 0 1.212054,-0.801339 8,8 0 0 1 -0.453125,0.345983 8,8 0 0 1 -0.683035,0.41741 8,8 0 0 1 -0.07589,0.03795 z"
     id="path853"
     inkscape:connector-curvature="0" />
  <path
     style="opacity:0.3;fill:#fefefe;fill-opacity:1;stroke-width:1.14285719"
     d="M 8,0 A 8,8 0 0 0 0.0133929,8.3482143 8,8 0 0 1 8,0.57142857 8,8 0 0 1 15.986607,8.2232143 8,8 0 0 0 8,0 Z M 9.435268,4.8526786 A 0.34628571,0.34628571 0 0 0 9.321429,4.9977679 c -0.07771,0.2022857 0.028,0.4305178 0.214285,0.5379464 L 9.852679,5.7142857 10.357143,5.4285714 9.535714,4.9642857 C 9.490806,4.9383875 9.46932,4.8904912 9.435268,4.8526786 Z M 6.9241072,4.875 A 0.49371429,0.49371429 0 0 1 6.7857143,5 L 5.9642857,5.4642857 6.4687499,5.75 6.7857143,5.5714286 A 0.49371429,0.49371429 0 0 0 7,5 C 6.9815306,4.9504685 6.9555176,4.9090487 6.9241072,4.875 Z m 5.8906258,0 A 0.49371429,0.49371429 0 0 1 12.678571,5 L 11.857143,5.4642857 12.361607,5.75 12.678571,5.5714286 A 0.49371429,0.49371429 0 0 0 12.892857,5 C 12.874237,4.950073 12.846477,4.909188 12.814737,4.875 Z M 3.5111607,4.87946 A 0.34628571,0.34628571 0 0 0 3.4285714,5 c -0.077714,0.2011429 0.025714,0.464 0.2142857,0.5714286 L 3.9263393,5.7254464 4.4285714,5.4285714 3.6428571,5 C 3.5911531,4.9705445 3.5481463,4.9278138 3.5111607,4.8794642 Z m 7.5959823,0.9776787 -1.321429,0.75 C 9.643429,6.686 9.496679,6.6804822 9.399554,6.5870536 a 0.49371429,0.49371429 0 0 0 -0.07813,0.4486607 c 0.07657,0.2034286 0.274571,0.248 0.464285,0.1428571 l 1.321429,-0.75 1.285714,0.75 c 0.187429,0.1074286 0.422286,0.058286 0.5,-0.1428571 0.06016,-0.1565909 -0.0085,-0.3114079 -0.120536,-0.4308036 -0.10679,0.069687 -0.252183,0.075186 -0.379464,0.00223 z M 5.2142857,5.8928571 3.8928571,6.6071429 C 3.7514286,6.686 3.6036072,6.6804822 3.5066965,6.5870536 a 0.49371429,0.49371429 0 0 0 -0.078125,0.4486607 c 0.075429,0.2034286 0.2757143,0.248 0.4642857,0.1428571 L 5.2142857,6.4642857 6.5,7.1785714 C 6.6874286,7.286 6.8854286,7.2368571 6.9642857,7.0357143 A 0.42971429,0.42971429 0 0 0 6.8883929,6.5825893 C 6.7907488,6.6789609 6.6421701,6.6886306 6.5,6.6071429 Z M 5.1071429,10.285714 c -0.9748572,0.02171 -2.106,0.456572 -2.8214286,1.071429 v 0.571428 c 0.7154286,-0.614857 1.8465714,-1.049714 2.8214286,-1.071428 0.7108571,0.02286 0.702,0.286286 1.75,0.785714 0.5028571,0.225143 1.6674285,0.358857 2.2857141,0 A 0.67885714,0.67885714 0 0 0 9.25,11.607143 c 0.02971,0.118857 0.04886,0.241714 0.107143,0.357143 l 0.678571,1.321428 c 0.374857,0.739429 1.205715,1.080286 1.857143,0.75 0.518662,-0.26206 0.750399,-0.860352 0.640625,-1.466517 -0.07614,0.383234 -0.289839,0.717849 -0.640625,0.895089 -0.651428,0.330285 -1.482286,-0.01057 -1.857143,-0.75 L 9.357143,11.392857 C 9.298857,11.277429 9.279714,11.154571 9.25,11.035714 a 0.67885714,0.67885714 0 0 1 -0.107143,0.03571 c -0.6182856,0.358857 -1.782857,0.225142 -2.2857141,0 -1.048,-0.499424 -1.0391429,-0.762853 -1.75,-0.78571 z m 6.7500001,0.178572 0.361607,0.725447 c 0.516413,0.210182 1.022713,0.474205 1.495536,0.738838 v -0.571428 c -0.584,-0.326857 -1.211429,-0.682572 -1.857143,-0.892857 z"
     id="path857"
     inkscape:connector-curvature="0" />
  <path
     style="opacity:0.2;fill:#181818;fill-opacity:1;stroke-width:1.14285719"
     d="m 6.6763393,3.6339286 c -0.046446,0.00402 -0.093482,0.018357 -0.140625,0.044643 l -1.3214286,0.75 -1.2857143,-0.75 A 0.30857143,0.30857143 0 0 0 3.7857143,3.6428571 0.34628571,0.34628571 0 0 0 3.4285714,3.8571429 c -0.056406,0.145992 -0.015316,0.3229051 0.082589,0.4508928 A 0.34628571,0.34628571 0 0 1 3.7857143,4.2142857 0.30857143,0.30857143 0 0 1 3.9285714,4.25 L 5.2142857,5 6.5357143,4.25 C 6.6781122,4.170602 6.8272381,4.198566 6.9241072,4.303571 A 0.49371429,0.49371429 0 0 0 7,3.8571429 C 6.9434286,3.7054286 6.8156785,3.621875 6.6763393,3.6339286 Z m 5.8928577,0 c -0.04645,0.00402 -0.09348,0.018357 -0.140626,0.044643 l -1.321428,0.75 -1.285714,-0.75 A 0.30857143,0.30857143 0 0 0 9.678571,3.6428576 0.34628571,0.34628571 0 0 0 9.321429,3.8549112 c -0.05898,0.1535199 0.0066,0.307301 0.113839,0.4263394 A 0.34628571,0.34628571 0 0 1 9.678571,4.2142857 0.30857143,0.30857143 0 0 1 9.821429,4.25 L 11.107143,5 12.428571,4.25 c 0.14203,-0.079192 0.289275,-0.050758 0.386162,0.053571 a 0.49371429,0.49371429 0 0 0 0.07812,-0.4464285 C 12.836286,3.7054286 12.708536,3.621875 12.569197,3.6339286 Z M 9.852679,5.1428571 9.535714,5.3214286 A 0.49371429,0.49371429 0 0 0 9.321429,5.8928571 c 0.01914,0.050857 0.04575,0.091625 0.07813,0.1227679 A 0.49371429,0.49371429 0 0 1 9.535719,5.8928571 L 10.357143,5.4285714 Z M 3.9263393,5.1540178 3.6428571,5.3214286 A 0.49371429,0.49371429 0 0 0 3.4285714,5.8928571 c 0.018857,0.050857 0.045821,0.091625 0.078125,0.1227679 A 0.49371429,0.49371429 0 0 1 3.6428571,5.8928571 L 4.4285714,5.4285714 Z m 2.5424106,0.024554 -0.5044642,0.2857143 0.8214286,0.4642857 a 0.42971429,0.42971429 0 0 1 0.1026786,0.082589 c 0.031084,-0.030679 0.056851,-0.069733 0.075893,-0.1183036 A 0.42971429,0.42971429 0 0 0 6.7857143,5.3571429 Z m 5.8928571,0 -0.504464,0.2857143 0.821428,0.4642857 c 0.04234,0.024267 0.06106,0.07007 0.09375,0.1049108 0.05046,-0.032931 0.0956,-0.076077 0.120536,-0.1406251 C 12.970571,5.6905714 12.866,5.4645714 12.678571,5.3571429 Z m 3.625,2.4732143 A 8,8 0 0 1 8,15.428571 8,8 0 0 1 0.0133929,7.7767857 8,8 0 0 0 8,16 8,8 0 0 0 15.986607,7.6517861 Z M 5.0290178,8.5937499 a 3.1428571,3.1428571 0 0 0 -0.3147321,0.011161 v 0.00223 C 3.5645714,8.71 2.5874286,9.4394286 2.2857143,10.214286 v 0.571428 C 2.5874286,10.010857 3.5645714,9.2814286 4.7142857,9.1785714 v -0.00223 a 3.1428571,3.1428571 0 0 1 2.1428572,0.609375 c 0.4,0.2514286 0.472,0.3128566 1.1428571,0.3928566 0.1828571,0.064 0.6937143,-0.04543 1.142857,-0.3928566 0.32,-0.2331429 0.640857,-0.3382857 0.964286,-0.4285714 1.496,-0.4205715 2.942,0.4982857 3.607143,1.428571 v -0.57143 C 13.049143,9.284 11.603143,8.3651429 10.107143,8.7857143 9.783714,8.876 9.462857,8.9811429 9.142857,9.2142857 8.6937143,9.5617143 8.1828571,9.6711429 8,9.6071429 7.3291429,9.5271429 7.2571429,9.4657143 6.8571429,9.2142857 A 3.1428571,3.1428571 0 0 0 5.0290178,8.5937499 Z m 6.8281252,1.8705361 0.535714,1.071428 c 0.0764,0.150702 0.112525,0.306888 0.140625,0.462054 0.06525,-0.328451 0.03238,-0.692227 -0.140625,-1.033482 L 12.21875,10.618304 c -0.121427,-0.04942 -0.238681,-0.113986 -0.361607,-0.154018 z"
     id="path862"
     inkscape:connector-curvature="0" />
</svg>
